X:1
T:William Billings, 1779 A minor                                    Revised 1781
T:Isaac Watts, 1719 (Hymn 93, Book 2)                           66. 86. (S. M.)
T:Wareham
T:Transcribed from The Psalm-Singer's Amusement, 1781.
%%score [ 1 2 3 4 ]
L:1/8
Q:1/4=120
M:4/4
K:C
V:1 treble nm="Tr." snm="Tr."
V:2 treble nm="C." snm="C."
V:3 treble-8 nm="T." snm="T."
V:4 bass nm="B." snm="B."
V:1
"^My  God, my life, my  love,  To     thee,   to   thee  I   call; ___     I    cannot   live   if   thou  remove,  For thou art all in  all,      For       thou   art      all      in     all." A4 | %1
 c2 B2 A2 B2 | (c3 d e2) e2 | dc B2 c2 c2 | (B3 c d2) e2 | A2 A2 B2 A2 | B2 B2 c2 BA | %7
 B2 B2 A2 e2 | d4 e4 | fe dc BA ^G2 | A8 |: z8 | z8 | z8 | %14
 z4 z2"^I   cannot  live  if    thou    re – move,   For   thou  art   all   in   all,                             in      all,     ________   For" A2 | %15
 e2 ed c2 c2 | B2 B2 c2 BA | B2 c2 e2 d2 | c6 e2 | (d3 c B2) A2 | %20
"^thou __________  art       all     in        all,    For        thou _____________      art       all       in        all,    For        thou  ____________     art           all  in  all." (B>c B>A B2) B2 | %21
 !wedge!A2 !wedge!e2 !wedge!e2 d2 | (e3 f ed) c2 | !wedge!B2 !wedge!B2 !wedge!B2 (cd) | %24
 (e>f e>d ed) cB | !wedge!A2 !wedge!c2 !wedge!c2 z2 | B4 A2 B2 | c2 BA GA Bc | B6 B2 | %29
 (c3 B) A2 ^G2 | A2 c2 c2 z2 | c6 z2 | B6 z2 | c8 | z4 c4 | (c3 d) e2 ed | %36
 !wedge!c2 !wedge!A2 !wedge!A4 :| %37
V:2
 E4 | %1
"^My  God, my life, my  love,  To      thee,   to    thee  I  call;              I    cannot  live  if   thou  remove  For   thou  art  all  in  all,     For     thou  art    all       in      all." E2 E2 E2 G2 | %2
 G4 (A2 ^G2) | A2 GF E2 G2 | G6 GF | E2 EF G2 A2 | G2 F2 E2 F2 | G2 (GF) E2 E2 | F4 E4 | %9
 F2 F2 E2 E2 | E8 |: z8 | z8 | %13
 z4"^I          can – not    live  if  thou remove, for  thou ________   art       all       in        all,         all          in        all. ______" E4 | %14
 G2 G2 G2 A2 | G2 E2 A2 A2 | (G>A G>F E2) F2 | G2 A2 A2 z2 | G2 G2 A4- | A4 z4 | %20
"^all       in       all.             Thou ___________   art         all        in             all.                   all       in        all.                  Thou ___________     art                                            I    can – not" G2 G2 G2 z2 | %21
 (A>B A>G A2) GE | E2 A2 A2 z2 | !wedge!G2 !wedge!G2 !wedge!G2 z2 | (G>A G>F E2) E2 | %25
"^all   in  all." !wedge!E2 !wedge!A2 !wedge!A2 z2 | G4 A2 G2 | %27
"^live   if    thou  re – move,    For   thou _________     art    all  in  all.      All.           All.           All.            For     thou _________     art" G2 F2 E2 E2 | %28
 E6 F2 | (G>A G>F E2) E2 | E2 A2 A2 z2 | A6 z2 | G6 z2 | A8 | z4 A4 | (G4 A2) GF | %36
"^all   in  all." !wedge!E2 !wedge!E2 !wedge!E4 :| %37
V:3
"^My  God, my life, my  love,  To     thee,   to  thee  I   call; ___     I    cannot   live  if   thou  remove  For  thou ____________________ art   all ____      in                    all." A4 | %1
 A2 B2 c2 d2 | (e3 d c2) B2 | A2 B2 c2 e2 | (d3 c B2) B2 | c2 c2 d2 d2 | e2 f2 g2 f2 | (e3 d c3 B | %8
 A3 B c2) e2 | (d2 c2) B4 | A8 |: z8 | %12
 z4 z2"^I   cannot   live,  I     can  –  not    live,  I   cannot  live  if   thou  re – move  For   thou _________  art    all         in        all,         Thou ________   art" E2 | %13
 A2 AB c2 c2 | B2 Bc d2 d2 | c2 cd e2 f2 | ed ef g2 f2 | (e>f e>d c2) d2 | %18
 !wedge!e2 !wedge!e2 !wedge!e2 z2 | (f>g f>e d2) c2 | %20
"^all      in        all.          Thou ________    art        all       in             all.             Thou _________   art       all        in       all.                   all   in   all." d2 d2 d2 z2 | %21
 (e>f e>d c2) B2 | c2 c2 c2 z2 | (d>e d>c B2) A2 | !wedge!B2 !wedge!B2 !wedge!B2 z2 | %25
 !wedge!A2 !wedge!e2 !wedge!e2 z2 | e4 AB cd | e2 d2 cd ef | g6 f2 | (e>f e>d c2) B2 | %30
 A2 e2 e2 z2 | e6 z2 | e6 z2 | e8 | z4 e4 | (e>f e>d c2) B2 | !wedge!A2 !wedge!A2 !wedge!A4 :| %37
V:4
"^My  God, my life, my  love,  To     thee,   to   thee  I    call;           I   cannot  live  if   thou  remove  For  thou  art  all   in  all,       For     thou  art     all       in       all." [A,,A,]4 | %1
 [A,,A,]2 E,2 [A,,A,]2 [G,,G,]2 | ([C,C]3 [B,,B,] [A,,A,]2) E,2 | F,2 E,D, C,2 C,2 | G,6 E,2 | %5
 A,2 A,2 G,2 F,2 | E,2 D,2 C,2 D,2 | E,2 E,2 A,,2 A,,2 | D,4 C,4 | F,2 D,2 E,2 E,2 | A,,8 |: %11
 z4"^I   can–not  live  if  thou remove, for Thou _______  art    all  in    all,       Thou _________  art      all       in        all.        Thou __________  art     all      in         all." A,,4 | %12
 E,2 E,D, C,2 C,2 | D,2 D,2 E,2 A,2 | (G,>A, G,>F, G,2) F,2 | %15
 !wedge!E,2 !wedge![A,,A,]2 !wedge![A,,A,]2 z2 | (E,>F, E,>D, C,2) D,2 | E,2 [A,,A,]2 [A,,A,]2 z2 | %18
 (C>D C>B, A,2) A,2 | D,2 D,2 D,2 z2 | %20
"^Thou ________  art     all      in       all.                Thou ___________      art    all       in       all.                 all       in       all." (G,>A, G,>F, G,2) E,2 | %21
 [A,,A,]2 [A,,A,]2 [A,,A,]2 z2 | (A,>B, A,>^G, A,2) E,2 | !wedge!G,2 !wedge!G,2 !wedge!G,2 z2 | %24
 !wedge!E,2 !wedge!E,2 !wedge!E,2 z2 | %25
"^all  in   all." !wedge!A,,2 !wedge![A,,A,]2 !wedge![A,,A,]2 z2 | E,4 F,2 E,D, | %27
 C,2 D,2 E,F, G,F, | E,6 D,2 | (C,>D, C,>D, E,2) E,2 | A,,2 [A,,A,]2 [A,,A,]2 z2 | [A,,A,]6 z2 | %32
 E,6 z2 | [A,,A,]8 | z4 [A,,A,]4 | ([C,C]3 [B,,B,] [A,,A,]2) E,2 | %36
 !wedge!A,,2 !wedge!A,,2 !wedge!A,,4 :| %37

